src/pics/live-card-icon.svg

<svg fill="none" height="25" viewBox="0 0 28 25" width="28" xmlns="http://www.w3.org/2000/svg"><g fill="#000"><path d="m14 5.99999c-1.24-.00124-2.4361.45829-3.3563 1.28938-.92023.83109-1.4988 1.97445-1.62341 3.20813-.12461 1.2337.21361 2.4696.94902 3.468.73539.9983 1.81549 1.6878 3.03069 1.9345v8.1c0 .2652.1054.5196.2929.7071s.4419.2929.7071.2929.5196-.1054.7071-.2929.2929-.4419.2929-.7071v-8.1c1.2152-.2467 2.2953-.9362 3.0307-1.9345.7354-.9984 1.0736-2.2343.949-3.468-.1246-1.23368-.7032-2.37704-1.6234-3.20813s-2.1163-1.29062-3.3563-1.28938zm0 8.00001c-.5933 0-1.1734-.176-1.6667-.5056-.4934-.3296-.8779-.7982-1.1049-1.3464-.2271-.5481-.2865-1.1513-.1708-1.7333.1158-.58192.4015-1.11647.8211-1.53603.4195-.41955.9541-.70528 1.536-.82103.582-.11576 1.1852-.05635 1.7334.17072.5481.22706 1.0167.61158 1.3463 1.10493.3297.49334.5056 1.07341.5056 1.66671 0 .7956-.3161 1.5587-.8787 2.1213s-1.3256.8787-2.1213.8787z"/><path d="m8.34 3.93c-.18736-.18625-.44081-.29079-.705-.29079s-.51764.10454-.705.29079c-1.87471 1.87528-2.92786 4.41836-2.92786 7.07 0 2.6516 1.05315 5.1947 2.92786 7.07.18736.1862.44081.2908.705.2908s.51764-.1046.705-.2908c.18625-.1874.29079-.4408.29079-.705s-.10454-.5176-.29079-.705c-.74381-.743-1.33388-1.6253-1.73648-2.5965-.40259-.9712-.60981-2.0122-.60981-3.0635 0-1.05133.20722-2.09234.60981-3.06352.4026-.97119.99267-1.8535 1.73648-2.59648.18625-.18736.29079-.44082.29079-.705 0-.26419-.10454-.51764-.29079-.705z"/><path d="m21.07 3.93c-.0896-.10469-.2-.18971-.324-.24973-.1241-.06002-.2592-.09375-.3969-.09907-.1378-.00532-.2751.01788-.4034.06816-.1283.05027-.2449.12653-.3423.22399-.0975.09745-.1738.214-.224.34232-.0503.12833-.0735.26566-.0682.40338s.0391.27285.0991.39692c.06.12406.145.23438.2497.32403.7438.74298 1.3339 1.62529 1.7365 2.59647.4026.97119.6098 2.0122.6098 3.06353 0 1.0513-.2072 2.0923-.6098 3.0635s-.9927 1.8535-1.7365 2.5965c-.1862.1874-.2908.4408-.2908.705s.1046.5176.2908.705c.1874.1862.4408.2908.705.2908s.5176-.1046.705-.2908c1.8747-1.8753 2.9279-4.4184 2.9279-7.07 0-2.65165-1.0532-5.19473-2.9279-7.07z"/><path d="m2 11c-.00124-1.57633.30811-3.13746.91037-4.5942.60225-1.45674 1.48562-2.78055 2.59963-3.8958.18625-.18737.2908-.44082.2908-.705 0-.26419-.10455-.51764-.2908-.705-.18736-.186254-.44081-.290796-.705-.290796-.26418 0-.51763.104542-.705.290796-1.30017 1.30004-2.33153 2.84345-3.03518 4.5421-.70366 1.69865-1.06582708 3.51927-1.06582708 5.3579 0 1.8386.36216708 3.6592 1.06582708 5.3579.70365 1.6986 1.73501 3.2421 3.03518 4.5421.09344.0927.20426.166.3261.2158.12183.0497.2523.075.3839.0742.26234-.0011.51374-.1053.7-.29.18625-.1874.2908-.4408.2908-.705s-.10455-.5176-.2908-.705c-1.11401-1.1153-1.99738-2.4391-2.59963-3.8958-.60226-1.4567-.91161-3.0179-.91037-4.5942z"/><path d="m23.9 1.1c-.1874-.186254-.4408-.290796-.705-.290796s-.5176.104542-.705.290796c-.1862.18736-.2908.44081-.2908.705 0 .26418.1046.51763.2908.705 1.1187 1.11484 2.0064 2.43955 2.612 3.89817.6057 1.45862.9175 3.02246.9175 4.60183 0 1.5794-.3118 3.1432-.9175 4.6018-.6056 1.4586-1.4933 2.7834-2.612 3.8982-.1862.1874-.2908.4408-.2908.705s.1046.5176.2908.705c.1863.1847.4377.2889.7.29.1316.0008.2621-.0245.3839-.0742.1218-.0498.2327-.1231.3261-.2158 1.3002-1.3 2.3315-2.8435 3.0352-4.5421.7036-1.6987 1.0658-3.5193 1.0658-5.3579 0-1.83863-.3622-3.65925-1.0658-5.3579-.7037-1.69865-1.735-3.24206-3.0352-4.5421z"/></g></svg>

<svg width="28" height="25" viewBox="0 0 28 25" fill="none" xmlns="http://www.w3.org/2000/svg">
<path d="M14 5.99999C12.76 5.99875 11.5639 6.45828 10.6437 7.28937C9.72347 8.12046 9.1449 9.26382 9.02029 10.4975C8.89568 11.7312 9.2339 12.9671 9.96931 13.9655C10.7047 14.9638 11.7848 15.6533 13 15.9V24C13 24.2652 13.1054 24.5196 13.2929 24.7071C13.4804 24.8946 13.7348 25 14 25C14.2652 25 14.5196 24.8946 14.7071 24.7071C14.8946 24.5196 15 24.2652 15 24V15.9C16.2152 15.6533 17.2953 14.9638 18.0307 13.9655C18.7661 12.9671 19.1043 11.7312 18.9797 10.4975C18.8551 9.26382 18.2765 8.12046 17.3563 7.28937C16.4361 6.45828 15.24 5.99875 14 5.99999ZM14 14C13.4067 14 12.8266 13.824 12.3333 13.4944C11.8399 13.1648 11.4554 12.6962 11.2284 12.148C11.0013 11.5999 10.9419 10.9967 11.0576 10.4147C11.1734 9.83278 11.4591 9.29823 11.8787 8.87867C12.2982 8.45912 12.8328 8.17339 13.4147 8.05764C13.9967 7.94188 14.5999 8.00129 15.1481 8.22836C15.6962 8.45542 16.1648 8.83994 16.4944 9.33329C16.8241 9.82663 17 10.4067 17 11C17 11.7956 16.6839 12.5587 16.1213 13.1213C15.5587 13.6839 14.7957 14 14 14Z" fill="black"/>
<path d="M8.34 3.93C8.15264 3.74375 7.89919 3.63921 7.635 3.63921C7.37081 3.63921 7.11736 3.74375 6.93 3.93C5.05529 5.80528 4.00214 8.34836 4.00214 11C4.00214 13.6516 5.05529 16.1947 6.93 18.07C7.11736 18.2562 7.37081 18.3608 7.635 18.3608C7.89919 18.3608 8.15264 18.2562 8.34 18.07C8.52625 17.8826 8.63079 17.6292 8.63079 17.365C8.63079 17.1008 8.52625 16.8474 8.34 16.66C7.59619 15.917 7.00612 15.0347 6.60352 14.0635C6.20093 13.0923 5.99371 12.0513 5.99371 11C5.99371 9.94867 6.20093 8.90766 6.60352 7.93648C7.00612 6.96529 7.59619 6.08298 8.34 5.34C8.52625 5.15264 8.63079 4.89918 8.63079 4.635C8.63079 4.37081 8.52625 4.11736 8.34 3.93Z" fill="black"/>
<path d="M21.07 3.93C20.9804 3.82531 20.87 3.74029 20.746 3.68027C20.6219 3.62025 20.4868 3.58652 20.3491 3.5812C20.2113 3.57588 20.074 3.59908 19.9457 3.64936C19.8174 3.69963 19.7008 3.77589 19.6034 3.87335C19.5059 3.9708 19.4296 4.08735 19.3794 4.21567C19.3291 4.344 19.3059 4.48133 19.3112 4.61905C19.3165 4.75677 19.3503 4.8919 19.4103 5.01597C19.4703 5.14003 19.5553 5.25035 19.66 5.34C20.4038 6.08298 20.9939 6.96529 21.3965 7.93647C21.7991 8.90766 22.0063 9.94867 22.0063 11C22.0063 12.0513 21.7991 13.0923 21.3965 14.0635C20.9939 15.0347 20.4038 15.917 19.66 16.66C19.4738 16.8474 19.3692 17.1008 19.3692 17.365C19.3692 17.6292 19.4738 17.8826 19.66 18.07C19.8474 18.2562 20.1008 18.3608 20.365 18.3608C20.6292 18.3608 20.8826 18.2562 21.07 18.07C22.9447 16.1947 23.9979 13.6516 23.9979 11C23.9979 8.34835 22.9447 5.80527 21.07 3.93Z" fill="black"/>
<path d="M2 11C1.99876 9.42367 2.30811 7.86254 2.91037 6.4058C3.51262 4.94906 4.39599 3.62525 5.51 2.51C5.69625 2.32263 5.8008 2.06918 5.8008 1.805C5.8008 1.54081 5.69625 1.28736 5.51 1.1C5.32264 0.913746 5.06919 0.809204 4.805 0.809204C4.54082 0.809204 4.28737 0.913746 4.1 1.1C2.79983 2.40004 1.76847 3.94345 1.06482 5.6421C0.36116 7.34075 -0.00100708 9.16137 -0.00100708 11C-0.00100708 12.8386 0.36116 14.6592 1.06482 16.3579C1.76847 18.0565 2.79983 19.6 4.1 20.9C4.19344 20.9927 4.30426 21.066 4.4261 21.1158C4.54793 21.1655 4.6784 21.1908 4.81 21.19C5.07234 21.1889 5.32374 21.0847 5.51 20.9C5.69625 20.7126 5.8008 20.4592 5.8008 20.195C5.8008 19.9308 5.69625 19.6774 5.51 19.49C4.39599 18.3747 3.51262 17.0509 2.91037 15.5942C2.30811 14.1375 1.99876 12.5763 2 11Z" fill="black"/>
<path d="M23.9 1.1C23.7126 0.913746 23.4592 0.809204 23.195 0.809204C22.9308 0.809204 22.6774 0.913746 22.49 1.1C22.3038 1.28736 22.1992 1.54081 22.1992 1.805C22.1992 2.06918 22.3038 2.32263 22.49 2.51C23.6087 3.62484 24.4964 4.94955 25.102 6.40817C25.7077 7.86679 26.0195 9.43063 26.0195 11.01C26.0195 12.5894 25.7077 14.1532 25.102 15.6118C24.4964 17.0704 23.6087 18.3952 22.49 19.51C22.3038 19.6974 22.1992 19.9508 22.1992 20.215C22.1992 20.4792 22.3038 20.7326 22.49 20.92C22.6763 21.1047 22.9277 21.2089 23.19 21.21C23.3216 21.2108 23.4521 21.1855 23.5739 21.1358C23.6957 21.086 23.8066 21.0127 23.9 20.92C25.2002 19.62 26.2315 18.0765 26.9352 16.3779C27.6388 14.6792 28.001 12.8586 28.001 11.02C28.001 9.18137 27.6388 7.36075 26.9352 5.6621C26.2315 3.96345 25.2002 2.42004 23.9 1.12V1.1Z" fill="black"/>
</svg>
